static/assets/images/icons/next.svg

<svg width="256" height="256" viewBox="0 0 256 256" fill="none" xmlns="http://www.w3.org/2000/svg">
<path fill-rule="evenodd" clip-rule="evenodd" d="M64.1322 68.8657C62.4767 67.7554 60.5499 67.1154 58.5581 67.0142C56.5664 66.913 54.5845 67.3544 52.8246 68.2912C51.0647 69.2279 49.5931 70.6248 48.5671 72.3323C47.5411 74.0398 46.9994 75.9937 47 77.985V179.017C46.9998 181.015 47.5453 182.974 48.5776 184.685C49.6099 186.396 51.0899 187.793 52.8585 188.727C54.627 189.66 56.6171 190.095 58.6144 189.983C60.6118 189.871 62.5408 189.218 64.1938 188.093L118.216 151.333V179.017C118.216 181.015 118.761 182.974 119.793 184.685C120.826 186.396 122.306 187.793 124.074 188.727C125.843 189.66 127.833 190.095 129.83 189.983C131.828 189.871 133.757 189.218 135.41 188.093L210.203 137.199C211.688 136.187 212.901 134.827 213.737 133.239C214.573 131.65 215.007 129.882 215 128.087C214.993 126.293 214.546 124.527 213.697 122.945C212.849 121.364 211.625 120.013 210.133 119.013L135.348 68.8657C133.692 67.7554 131.766 67.1154 129.774 67.0142C127.782 66.913 125.8 67.3544 124.04 68.2912C122.281 69.2279 120.809 70.6248 119.783 72.3323C118.757 74.0398 118.215 75.9937 118.216 77.985V105.132L64.1322 68.8657Z" fill="black"/>
</svg>

<svg xmlns="http://www.w3.org/2000/svg" fill="none" viewBox="0 0 256 256"><path fill="#000" fill-rule="evenodd" d="M64.132 68.866a11.01 11.01 0 0 0-15.565 3.466A10.97 10.97 0 0 0 47 77.985v101.032c0 1.998.545 3.957 1.578 5.668a11 11 0 0 0 10.036 5.298 11 11 0 0 0 5.58-1.89l54.022-36.76v27.684a10.97 10.97 0 0 0 5.858 9.71 11.02 11.02 0 0 0 11.336-.634l74.793-50.894a10.98 10.98 0 0 0 4.797-9.112 10.99 10.99 0 0 0-4.867-9.074l-74.785-50.147a11.01 11.01 0 0 0-15.565 3.466 10.96 10.96 0 0 0-1.567 5.653v27.147z" clip-rule="evenodd"/></svg>
